X: 128005
T: JIG
%R: jig
B: James Kerr "Merry Melodies" v.1 p.28 s.0 #5
Z: 2016 John Chambers <jc:trillian.mit.edu>
M: 6/8
L: 1/8
K: A
|:\
vc2vc cBA | vc2vc cBA | Ace aec | vB2vB Bed |\
c2c cBA | c2c cBA | Ace ua2ua | bag a2 H:|\
uc |\
vA2vf ue2uf | c2B A2E | FGA B2G | A3- A2ue |
ve2vc efg | va2va ug2uf | f2e c2e | f3- f2ue |\
e2c efg | a2a g2f | f2e c2e | f3 (g2a) |\
e2c e2f | c2B A2E | FGA B2G | A2z a2"_D.C."z |]

%%sep 1 1 500
%%sep 1 1 500

